X:5169
T:Fermoy Lasses
S:John Gillis, irtrad-l, 11/97
N:as played of Charlie Gaffney and Mike Gallagher
M:4/4
L:1/8
R:Reel
K:Em
BA|GE~E2 BE~E2|GE~E2 B2BA|GE~E2 BE~E2|AFDF ACBA|
GE~E2 BE~E2|GE~E2 B2BA|~G2GB d2dB|AFDF A2BA:|
|:G2BG dGBA|
G2 Bd efg2| G2BG dGBG|AFDF A2BA|
G2BG dGBA|G2 Bd efg2|gage dedB|AFDF A2BA:|
